!!!COM:	Bartok
!!!OTL:	334_Bar-27/13/[7]3-10
**kern	**kern	**kern	**dynam
*part2	*part2	*part1	*part1
*staff3	*staff2	*staff1	*S
*I"Piano	*	*I"Violin	*
*I'Pno.	*	*I'Vln.	*
*clefF4	*clefF4	*clefG2	*
*k[]	*k[]	*k[]	*
*C:	*C:	*C:	*
*M2/4	*M2/4	*M2/4	*
=1	=1	=1	=1
8EEE 8BBB	8r	(16cc#XLL	.
.	.	16a	.
8r	8FF^ 8C	16g)	.
.	.	(16ccnJJ	.
8BBn 8D#X	8r	16b-XLL)	.
.	.	16gJJ)	.
8r	8B-X 8d	16r	.
.	.	(16cc#X	.
=2	=2	=2	=2
8EEE^ 8BBB	8r	16bnLL	.
.	.	16a)	.
8r	8FF 8C	(16ccn	.
.	.	16b-XJJ	.
8BBn 8D#X	8r	8gL)	.
8r	8B-X^ 8d	(16gL	.
.	.	16aJJ	.
=3	=3	=3	=3
8EEE 8BBB	8r	16bLL	.
.	.	16cc#X	.
8r	8FF 8C	16dd#X	.
.	.	16eeJJ	.
8BBn^ 8D#X	8r	16dd#LL	.
.	.	16ee	.
8r	8B-X 8d	16ff	.
.	.	16eeJJ	.
=4	=4	=4	=4
8EEE 8BBB	8r	16dd#XLL	.
.	.	16ee	.
8r	8FF^ 8C	16dd#	.
.	.	16cc#XJJ)	.
8BBn 8D#X	8r	(16dd#LL	.
.	.	16cc#	.
8r	8B-X 8d	16b	.
.	.	16cc#JJ	.
=5	=5	=5	=5
!!linebreak:original
8EEE^ 8BBB	8r	16bLL	.
.	.	16a	.
8r	8FF 8C	16b	.
.	.	16aJJ	.
8BBn 8D#X	8r	8g'L)	.
8r	8B-X^ 8d	(16cc#X^L	.
.	.	16aJJ	.
=6	=6	=6	=6
8EEE 8BBB	8r	16gLL)	.
.	.	(16ccn^	.
8r	8FF 8C	16b-X	.
.	.	16gJJ)	.
8BBn^ 8D#X	8r	16r	.
.	.	(16cc#X^LL	.
8r	8B-X 8d	16a	.
.	.	16gJJ)	.
=7	=7	=7	=7
8EEE 8BBB	8r	(16ccn^^^LL	.
.	.	16b-X	.
8r	8FF^ 8C	16gJJ)	.
.	.	16r	.
8BBn 8D#X	8r	(16ccc#XLL	.
.	.	16aa	.
8r	8B-X 8d	16ggJJ)	.
.	.	16r	.
=8	=8	=8	=8
8EEE^ 8BBB	8r	(16ccn^^^LL	.
.	.	16b-X	.
8r	8FF 8C	16gJJ)	.
.	.	16r	[
8BBn^ 8D#X	8r	(16c#XLL	.
.	.	16A	.
8r	8B-X 8d	16GJJ)	.
.	.	16r	.
==	==	==	==
*-	*-	*-	*-
!!!system-decoration: s1{(s2,s3)}
!!!ONB: Converted from MusicXML on 2019/06/05
